;FLAVOR:Marlin
;TIME:4283
;Filament used: 0.911399m
;Layer height: 0.12
;MINX:99.862
;MINY:99.872
;MINZ:0.12
;MAXX:135.138
;MAXY:135.135
;MAXZ:45.6
;Generated with Cura_SteamEngine 5.4.0
M140 S60
M105
M190 S60
M104 S210
M105
M109 S210
M82 ;absolute extrusion mode
; Ender 3 Custom Start G-code
G92 E0 ; Reset Extruder
G28 ; Home all axes
G1 Z2.0 F3000 ; Move Z Axis up little to prevent scratching of Heat Bed
G1 X0.1 Y20 Z0.3 F5000.0 ; Move to start position
G1 X0.1 Y200.0 Z0.3 F1500.0 E15 ; Draw the first line
G1 X0.4 Y200.0 Z0.3 F5000.0 ; Move to side a little
G1 X0.4 Y20 Z0.3 F1500.0 E30 ; Draw the second line
G92 E0 ; Reset Extruder
G1 Z2.0 F3000 ; Move Z Axis up little to prevent scratching of Heat Bed
G1 X5 Y20 Z0.3 F5000.0 ; Move over to prevent blob squish
G92 E0
G92 E0
G1 F2700 E-5
;LAYER_COUNT:380
;LAYER:0
M107
G0 F6000 X104.95 Y105.108 Z0.12
;TYPE:SKIRT
G1 F2700 E0
G1 F1200 X105.369 Y104.699 E0.01168
G1 X105.936 Y104.186 E0.02694
G1 X106.371 Y103.818 E0.03831
G1 X106.958 Y103.356 E0.05322
G1 X107.596 Y102.901 E0.06886
G1 X107.857 Y102.727 E0.07512
G1 X108.613 Y102.266 E0.09279
G1 X109.3 Y101.885 E0.10847
G1 X110.439 Y101.337 E0.13369
G1 X111.067 Y101.08 E0.14723
G1 X111.915 Y100.768 E0.16526
G1 X112.859 Y100.486 E0.18493
G1 X113.564 Y100.316 E0.1994
G1 X114.445 Y100.136 E0.21734
G1 X115.362 Y99.991 E0.23587
G1 X115.881 Y99.942 E0.24627
G1 X116.572 Y99.895 E0.26009
G1 X117.308 Y99.872 E0.27479
G1 X117.942 Y99.873 E0.28744
G1 X118.771 Y99.908 E0.304
G1 X119.203 Y99.944 E0.31265
G1 X120.078 Y100.051 E0.33024
G1 X120.545 Y100.129 E0.33969
G1 X121.335 Y100.29 E0.35578
G1 X122.16 Y100.493 E0.37273
G1 X123.027 Y100.745 E0.39075
G1 X123.594 Y100.953 E0.40281
G1 X124.4 Y101.275 E0.42013
G1 X125.126 Y101.599 E0.43599
G1 X125.511 Y101.786 E0.44453
G1 X126.1 Y102.097 E0.45782
G1 X126.405 Y102.272 E0.46484
G1 X127.119 Y102.713 E0.48159
G1 X127.813 Y103.189 E0.49838
G1 X128.32 Y103.568 E0.51102
G1 X128.647 Y103.829 E0.51937
G1 X129.199 Y104.302 E0.53387
G1 X129.608 Y104.677 E0.54495
G1 X130.074 Y105.131 E0.55793
G1 X130.345 Y105.413 E0.56573
G1 X130.782 Y105.894 E0.5787
G1 X131.366 Y106.6 E0.59699
G1 X131.625 Y106.937 E0.60547
G1 X131.971 Y107.414 E0.61723
G1 X132.17 Y107.708 E0.62431
G1 X132.51 Y108.242 E0.63695
G1 X132.824 Y108.769 E0.64919
G1 X133.319 Y109.702 E0.67027
G1 X133.592 Y110.285 E0.68311
G1 X133.906 Y111.024 E0.69914
G1 X134.094 Y111.52 E0.70972
G1 X134.316 Y112.17 E0.72343
G1 X134.565 Y113.031 E0.74132
G1 X134.744 Y113.781 E0.7567
G1 X134.901 Y114.605 E0.77344
G1 X135.014 Y115.397 E0.78941
G1 X135.095 Y116.242 E0.80635
G1 X135.118 Y116.608 E0.81367
G1 X135.138 Y117.356 E0.8286
G1 X135.134 Y117.854 E0.83854
G1 X135.092 Y118.778 E0.857
G1 X135.008 Y119.622 E0.87392
G1 X134.931 Y120.183 E0.88522
G1 X134.805 Y120.911 E0.89997
G1 X134.709 Y121.371 E0.90934
G1 X134.55 Y122.024 E0.92276
G1 X134.455 Y122.368 E0.92988
G1 X134.249 Y123.029 E0.94369
G1 X134.109 Y123.431 E0.95219
G1 X133.825 Y124.157 E0.96775
G1 X133.508 Y124.886 E0.98361
G1 X133.108 Y125.718 E1.00203
G1 X132.743 Y126.373 E1.017
G1 X132.469 Y126.826 E1.02756
G1 X132.058 Y127.457 E1.04259
G1 X131.776 Y127.857 E1.05236
G1 X131.354 Y128.414 E1.0663
G1 X131.049 Y128.791 E1.07598
G1 X130.493 Y129.426 E1.09282
G1 X130.119 Y129.82 E1.10366
G1 X129.37 Y130.535 E1.12433
G1 X128.656 Y131.152 E1.14316
G1 X127.863 Y131.776 E1.1633
G1 X127.595 Y131.966 E1.16985
G1 X126.94 Y132.402 E1.18555
G1 X126.23 Y132.83 E1.2021
G1 X125.522 Y133.206 E1.2181
G1 X125.002 Y133.46 E1.22965
G1 X124.327 Y133.761 E1.24439
G1 X123.799 Y133.974 E1.25576
G1 X123.083 Y134.234 E1.27096
G1 X122.763 Y134.336 E1.27766
G1 X122 Y134.556 E1.29351
G1 X121.25 Y134.737 E1.3089
G1 X120.68 Y134.852 E1.32051
G1 X119.89 Y134.978 E1.33647
G1 X119.541 Y135.021 E1.34349
G1 X118.672 Y135.101 E1.3609
G1 X117.982 Y135.13 E1.37469
G1 X117.51 Y135.135 E1.38411
G1 X116.749 Y135.115 E1.3993
G1 X116.02 Y135.071 E1.41387
G1 X115.076 Y134.97 E1.43282
G1 X114.626 Y134.901 E1.4419
G1 X113.749 Y134.734 E1.45972
G1 X113.066 Y134.571 E1.47373
G1 X112.61 Y134.445 E1.48317
G1 X112.018 Y134.264 E1.49553
G1 X111.555 Y134.106 E1.50529
G1 X110.706 Y133.778 E1.52345
G1 X110.241 Y133.574 E1.53359
G1 X109.54 Y133.236 E1.54912
G1 X108.991 Y132.948 E1.56149
G1 X108.369 Y132.594 E1.57577
G1 X108.08 Y132.416 E1.58254
G1 X107.475 Y132.014 E1.59704
G1 X107.094 Y131.741 E1.60639
G1 X106.368 Y131.174 E1.62478
G1 X105.718 Y130.62 E1.64182
G1 X105.019 Y129.966 E1.66092
G1 X104.501 Y129.424 E1.67589
G1 X103.921 Y128.761 E1.69346
G1 X103.434 Y128.144 E1.70915
G1 X103.228 Y127.866 E1.71606
G1 X102.817 Y127.27 E1.7305
G1 X102.567 Y126.879 E1.73976
G1 X102.181 Y126.225 E1.75492
G1 X101.811 Y125.545 E1.77037
G1 X101.413 Y124.731 E1.78845
G1 X101.247 Y124.353 E1.79669
G1 X101.02 Y123.792 E1.80877
G1 X100.746 Y123.022 E1.82508
G1 X100.654 Y122.734 E1.83111
G1 X100.457 Y122.035 E1.8456
G1 X100.309 Y121.439 E1.85786
G1 X100.16 Y120.719 E1.87253
G1 X100.08 Y120.255 E1.88193
G1 X99.979 Y119.528 E1.89657
G1 X99.934 Y119.088 E1.9054
G1 X99.888 Y118.458 E1.91801
G1 X99.868 Y117.97 E1.92775
G1 X99.862 Y117.203 E1.94306
G1 X99.875 Y116.796 E1.95119
G1 X99.921 Y116.072 E1.96566
G1 X99.971 Y115.554 E1.97605
G1 X100.057 Y114.899 E1.98923
G1 X100.15 Y114.333 E2.00068
G1 X100.361 Y113.333 E2.02107
G1 X100.526 Y112.708 E2.03397
G1 X100.803 Y111.814 E2.05265
G1 X100.984 Y111.313 E2.06328
G1 X101.282 Y110.573 E2.0792
G1 X101.536 Y110.002 E2.09167
G1 X101.837 Y109.382 E2.10543
G1 X101.998 Y109.079 E2.11227
G1 X102.365 Y108.441 E2.12696
G1 X102.6 Y108.062 E2.13586
G1 X103.056 Y107.388 E2.1521
G1 X103.51 Y106.77 E2.1674
G1 X104.008 Y106.14 E2.18343
G1 X104.293 Y105.808 E2.19216
G1 X104.95 Y105.108 E2.21132
G0 F6000 X105.229 Y105.394
G1 F1200 X105.638 Y104.995 E2.22272
G1 X106.194 Y104.491 E2.2377
G1 X106.618 Y104.132 E2.24879
G1 X107.19 Y103.682 E2.26331
G1 X107.818 Y103.234 E2.2787
G1 X108.079 Y103.06 E2.28496
G1 X108.807 Y102.616 E2.30198
G1 X109.494 Y102.235 E2.31766
G1 X110.591 Y101.707 E2.34195
G1 X111.205 Y101.455 E2.3552
G1 X112.03 Y101.151 E2.37274
G1 X112.953 Y100.875 E2.39197
G1 X113.644 Y100.708 E2.40616
G1 X114.508 Y100.531 E2.42376
G1 X115.4 Y100.389 E2.44178
G1 X115.908 Y100.341 E2.45196
G1 X116.585 Y100.295 E2.46551
G1 X117.307 Y100.272 E2.47992
G1 X117.925 Y100.273 E2.49225
G1 X118.738 Y100.307 E2.50849
G1 X119.154 Y100.341 E2.51682
G1 X120.013 Y100.446 E2.53409
G1 X120.465 Y100.521 E2.54324
G1 X121.24 Y100.679 E2.55902
G1 X122.048 Y100.877 E2.57562
G1 X122.915 Y101.129 E2.59364
G1 X123.446 Y101.324 E2.60493
G1 X124.237 Y101.64 E2.62193
G1 X124.951 Y101.958 E2.63752
G1 X125.324 Y102.14 E2.64581
G1 X125.902 Y102.445 E2.65885
G1 X126.195 Y102.612 E2.66558
G1 X126.893 Y103.043 E2.68195
G1 X127.574 Y103.51 E2.69843
G1 X128.071 Y103.881 E2.71081
G1 X128.387 Y104.133 E2.71887
G1 X128.929 Y104.597 E2.73311
G1 X129.329 Y104.964 E2.74394
G1 X129.786 Y105.409 E2.75667
G1 X130.049 Y105.682 E2.76424
G1 X130.474 Y106.149 E2.77684
G1 X131.049 Y106.844 E2.79484
G1 X131.301 Y107.172 E2.80309
G1 X131.64 Y107.639 E2.81461
G1 X131.833 Y107.923 E2.82146
G1 X132.167 Y108.447 E2.83386
G1 X132.471 Y108.956 E2.84569
G1 X132.957 Y109.872 E2.86639
G1 X133.224 Y110.441 E2.87893
G1 X133.532 Y111.166 E2.89465
G1 X133.715 Y111.649 E2.90496
G1 X133.937 Y112.299 E2.91866
G1 X134.176 Y113.124 E2.9358
G1 X134.351 Y113.856 E2.95082
G1 X134.505 Y114.662 E2.9672
G1 X134.616 Y115.435 E2.98278
G1 X134.696 Y116.267 E2.99946
G1 X134.718 Y116.619 E3.0065
G1 X134.738 Y117.353 E3.02116
G1 X134.734 Y117.836 E3.03079
G1 X134.692 Y118.76 E3.04925
G1 X134.612 Y119.568 E3.06546
G1 X134.537 Y120.115 E3.07647
G1 X134.414 Y120.829 E3.09093
G1 X134.32 Y121.277 E3.10007
G1 X134.165 Y121.917 E3.11321
G1 X134.073 Y122.249 E3.12008
G1 X133.871 Y122.898 E3.13365
G1 X133.736 Y123.286 E3.14185
G1 X133.458 Y123.998 E3.1571
G1 X133.148 Y124.713 E3.17265
G1 X132.758 Y125.524 E3.19061
G1 X132.401 Y126.166 E3.20527
G1 X132.134 Y126.608 E3.21558
G1 X131.731 Y127.227 E3.23032
G1 X131.457 Y127.616 E3.23981
G1 X131.043 Y128.163 E3.2535
G1 X130.748 Y128.528 E3.26287
G1 X130.203 Y129.151 E3.27938
G1 X129.843 Y129.531 E3.28983
G1 X129.108 Y130.233 E3.31011
G1 X128.409 Y130.838 E3.32856
G1 X127.631 Y131.45 E3.34832
G1 X127.374 Y131.633 E3.35461
G1 X126.733 Y132.059 E3.36997
G1 X126.023 Y132.487 E3.38652
G1 X125.347 Y132.847 E3.4018
G1 X124.839 Y133.095 E3.41308
G1 X124.177 Y133.39 E3.42754
G1 X123.662 Y133.598 E3.43863
G1 X122.961 Y133.853 E3.45351
G1 X122.652 Y133.952 E3.45999
G1 X121.906 Y134.167 E3.47548
G1 X121.171 Y134.345 E3.49057
G1 X120.617 Y134.457 E3.50185
G1 X119.841 Y134.581 E3.51754
G1 X119.504 Y134.623 E3.52431
G1 X118.655 Y134.701 E3.54133
G1 X117.978 Y134.73 E3.55485
G1 X117.52 Y134.735 E3.56399
G1 X116.773 Y134.716 E3.5789
G1 X116.063 Y134.673 E3.5931
G1 X115.119 Y134.572 E3.61204
G1 X114.701 Y134.508 E3.62048
G1 X113.842 Y134.345 E3.63793
G1 X113.172 Y134.185 E3.65168
G1 X112.727 Y134.063 E3.66088
G1 X112.147 Y133.885 E3.67299
G1 X111.699 Y133.733 E3.68243
G1 X110.866 Y133.411 E3.70025
G1 X110.415 Y133.214 E3.71008
G1 X109.726 Y132.882 E3.72534
G1 X109.189 Y132.6 E3.73744
G1 X108.579 Y132.253 E3.75145
G1 X108.29 Y132.075 E3.75822
G1 X107.708 Y131.689 E3.77216
G1 X107.34 Y131.426 E3.78118
G1 X106.627 Y130.869 E3.79924
G1 X105.991 Y130.328 E3.8159
G1 X105.308 Y129.69 E3.83456
G1 X104.802 Y129.161 E3.84916
G1 X104.235 Y128.513 E3.86635
G1 X103.755 Y127.906 E3.88179
G1 X103.557 Y127.639 E3.88842
G1 X103.154 Y127.055 E3.90258
G1 X102.911 Y126.675 E3.91158
G1 X102.532 Y126.034 E3.92644
G1 X102.17 Y125.369 E3.94155
G1 X101.779 Y124.57 E3.95931
G1 X101.618 Y124.203 E3.9673
G1 X101.397 Y123.658 E3.97904
G1 X101.127 Y122.9 E3.9951
G1 X101.039 Y122.625 E4.00086
G1 X100.845 Y121.939 E4.01509
G1 X100.701 Y121.357 E4.02705
G1 X100.554 Y120.651 E4.04144
G1 X100.476 Y120.2 E4.05058
G1 X100.377 Y119.487 E4.06494
G1 X100.333 Y119.059 E4.07353
G1 X100.288 Y118.441 E4.08589
G1 X100.268 Y117.967 E4.09536
G1 X100.262 Y117.215 E4.11037
G1 X100.274 Y116.821 E4.11823
G1 X100.319 Y116.111 E4.13243
G1 X100.368 Y115.606 E4.14256
G1 X100.452 Y114.963 E4.1555
G1 X100.541 Y114.416 E4.16656
G1 X100.748 Y113.435 E4.18657
G1 X100.908 Y112.826 E4.19913
G1 X101.179 Y111.95 E4.21743
G1 X101.355 Y111.462 E4.22778
G1 X101.647 Y110.736 E4.2434
G1 X101.896 Y110.177 E4.25561
G1 X102.197 Y109.557 E4.26936
G1 X102.345 Y109.278 E4.27567
G1 X102.705 Y108.652 E4.29008
G1 X102.932 Y108.286 E4.29867
G1 X103.379 Y107.624 E4.31461
G1 X103.823 Y107.018 E4.32961
G1 X104.312 Y106.401 E4.34532
G1 X104.597 Y106.069 E4.35405
G1 X105.229 Y105.394 E4.3725
G0 F6000 X105.509 Y105.68
G1 F1200 X105.907 Y105.291 E4.38361
G1 X106.452 Y104.796 E4.3983
G1 X106.866 Y104.446 E4.40912
G1 X107.422 Y104.008 E4.42324
G1 X108.04 Y103.567 E4.43839
G1 X108.301 Y103.393 E4.44465
G1 X109.001 Y102.966 E4.46102
G1 X109.668 Y102.595 E4.47625
G1 X110.743 Y102.077 E4.50006
G1 X111.343 Y101.83 E4.51301
G1 X112.149 Y101.533 E4.53015
G1 X112.745 Y101.348 E4.54261
G1 X113.047 Y101.264 E4.54886
G1 X113.725 Y101.1 E4.56278
G1 X114.571 Y100.926 E4.58002
G1 X115.463 Y100.784 E4.59804
G1 X115.935 Y100.74 E4.6075
G1 X116.598 Y100.695 E4.62076
G1 X117.306 Y100.672 E4.6349
G1 X117.908 Y100.673 E4.64691
G1 X118.706 Y100.706 E4.66285
G1 X119.105 Y100.738 E4.67084
G1 X119.948 Y100.841 E4.68779
G1 X120.385 Y100.913 E4.69663
G1 X121.145 Y101.068 E4.71211
G1 X121.936 Y101.261 E4.72835
G1 X122.803 Y101.513 E4.74637
G1 X123.298 Y101.696 E4.7569
G1 X124.075 Y102.006 E4.7736
G1 X124.775 Y102.317 E4.78888
G1 X125.137 Y102.494 E4.79693
G1 X125.704 Y102.793 E4.80972
G1 X125.985 Y102.953 E4.81617
G1 X126.667 Y103.373 E4.83215
G1 X127.335 Y103.83 E4.84831
G1 X127.822 Y104.194 E4.86044
G1 X128.127 Y104.437 E4.86822
G1 X128.659 Y104.892 E4.88219
G1 X129.05 Y105.25 E4.89277
G1 X129.498 Y105.687 E4.90526
G1 X129.753 Y105.951 E4.91259
G1 X130.166 Y106.404 E4.92482
G1 X130.732 Y107.088 E4.94254
G1 X130.977 Y107.407 E4.95056
G1 X131.316 Y107.874 E4.96208
G1 X131.496 Y108.138 E4.96846
G1 X131.824 Y108.652 E4.98062
G1 X132.118 Y109.144 E4.99206
G1 X132.595 Y110.042 E5.01235
G1 X132.856 Y110.598 E5.02461
G1 X133.158 Y111.308 E5.04001
G1 X133.337 Y111.779 E5.05006
G1 X133.553 Y112.41 E5.06337
G1 X133.787 Y113.217 E5.08014
G1 X133.958 Y113.931 E5.09479
G1 X134.109 Y114.719 E5.1108
G1 X134.218 Y115.473 E5.12601
G1 X134.297 Y116.292 E5.14243
G1 X134.318 Y116.63 E5.14918
G1 X134.338 Y117.35 E5.16356
G1 X134.334 Y117.818 E5.1729
G1 X134.292 Y118.742 E5.19136
G1 X134.216 Y119.514 E5.20684
G1 X134.143 Y120.047 E5.21757
G1 X134.022 Y120.747 E5.23175
G1 X133.931 Y121.183 E5.24064
G1 X133.779 Y121.811 E5.25353
G1 X133.691 Y122.13 E5.26014
G1 X133.493 Y122.767 E5.27345
G1 X133.363 Y123.141 E5.28135
G1 X133.091 Y123.839 E5.2963
G1 X132.788 Y124.54 E5.31154
G1 X132.408 Y125.33 E5.32903
G1 X132.058 Y125.96 E5.34342
G1 X131.799 Y126.39 E5.35343
G1 X131.404 Y126.997 E5.36789
G1 X131.138 Y127.375 E5.37711
G1 X130.732 Y127.912 E5.39054
G1 X130.447 Y128.265 E5.3996
G1 X129.913 Y128.876 E5.41579
G1 X129.566 Y129.242 E5.42586
G1 X128.846 Y129.931 E5.44574
G1 X128.162 Y130.524 E5.46381
G1 X127.399 Y131.124 E5.48318
G1 X127.152 Y131.3 E5.48923
G1 X126.526 Y131.717 E5.50424
G1 X125.835 Y132.134 E5.52035
G1 X125.172 Y132.488 E5.53535
G1 X124.676 Y132.73 E5.54636
G1 X124.027 Y133.019 E5.56054
G1 X123.525 Y133.222 E5.57134
G1 X122.838 Y133.472 E5.58593
G1 X122.541 Y133.568 E5.59216
G1 X121.812 Y133.778 E5.6073
G1 X121.092 Y133.953 E5.62209
G1 X120.554 Y134.062 E5.63304
G1 X119.791 Y134.184 E5.64846
G1 X119.468 Y134.225 E5.65496
G1 X118.638 Y134.301 E5.67159
G1 X117.973 Y134.33 E5.68488
G1 X117.53 Y134.335 E5.69372
G1 X116.797 Y134.317 E5.70835
G1 X116.105 Y134.275 E5.72219
G1 X115.18 Y134.177 E5.74075
G1 X114.775 Y134.115 E5.74893
G1 X113.935 Y133.956 E5.76599
G1 X113.278 Y133.799 E5.77947
G1 X112.844 Y133.68 E5.78845
G1 X112.275 Y133.506 E5.80032
G1 X111.843 Y133.36 E5.80942
G1 X111.026 Y133.044 E5.8269
G1 X110.575 Y132.847 E5.83672
G1 X109.912 Y132.528 E5.85141
G1 X109.387 Y132.252 E5.86324
G1 X108.789 Y131.912 E5.87697
G1 X108.511 Y131.741 E5.88348
G1 X107.94 Y131.363 E5.89715
G1 X107.586 Y131.111 E5.90582
G1 X106.886 Y130.565 E5.92354
G1 X106.264 Y130.035 E5.93984
G1 X105.597 Y129.413 E5.95805
G1 X105.103 Y128.897 E5.9723
G1 X104.549 Y128.265 E5.98907
G1 X104.076 Y127.668 E6.00427
G1 X103.886 Y127.412 E6.01063
G1 X103.491 Y126.839 E6.02452
G1 X103.255 Y126.471 E6.03325
G1 X102.883 Y125.843 E6.04781
G1 X102.529 Y125.193 E6.06258
G1 X102.145 Y124.409 E6.08001
G1 X101.989 Y124.053 E6.08776
G1 X101.774 Y123.523 E6.09918
G1 X101.508 Y122.778 E6.11496
G1 X101.424 Y122.516 E6.12045
G1 X101.233 Y121.843 E6.13441
G1 X101.093 Y121.275 E6.14609
G1 X100.948 Y120.582 E6.16022
G1 X100.872 Y120.145 E6.16907
G1 X100.775 Y119.446 E6.18315
G1 X100.732 Y119.03 E6.1915
G1 X100.688 Y118.424 E6.20362
G1 X100.668 Y117.964 E6.21281
G1 X100.662 Y117.227 E6.22752
G1 X100.673 Y116.846 E6.23513
G1 X100.717 Y116.15 E6.24904
G1 X100.765 Y115.658 E6.25891
G1 X100.847 Y115.027 E6.27161
G1 X100.932 Y114.499 E6.28228
G1 X101.135 Y113.536 E6.30192
G1 X101.29 Y112.944 E6.31413
G1 X101.556 Y112.085 E6.33208
G1 X101.726 Y111.611 E6.34213
G1 X102.012 Y110.899 E6.35744
G1 X102.256 Y110.352 E6.36939
G1 X102.551 Y109.744 E6.38288
G1 X102.692 Y109.477 E6.3889
G1 X103.045 Y108.863 E6.40304
G1 X103.264 Y108.51 E6.41133
G1 X103.702 Y107.86 E6.42697
G1 X104.137 Y107.266 E6.44166
G1 X104.616 Y106.661 E6.45706
G1 X104.889 Y106.342 E6.46544
G1 X105.509 Y105.68 E6.48354
G1 F2700 E1.48354
;MESH:Eje barrefondos 2 UNION.stl
G0 F6000 X111.274 Y113.661
G0 X112.18 Y114.257
G0 X112.01 Y117.711
G0 X112.186 Y118.869
G0 X112.472 Y119.715
G0 X112.993 Y120.643
G0 X113.739 Y121.498
G0 X114.572 Y122.142
G0 X115.38 Y122.561
G0 X115.921 Y122.736
G0 X117.631 Y123.147
;TYPE:WALL-INNER
G1 F2700 E6.48354
G1 F1200 X118.167 Y123.11 E6.49426
G1 X118.418 Y123.075 E6.49932
G1 X118.689 Y123.022 E6.50483
G1 X119.126 Y122.913 E6.51382
G1 X119.58 Y122.758 E6.52339
G1 X120.075 Y122.527 E6.53429
G1 X120.303 Y122.405 E6.53945
G1 X120.744 Y122.124 E6.54989
G1 X120.957 Y121.967 E6.55517
